src/lib/packages/icons/src/assets/filled/hourglass.svg

<svg width="24" height="24" viewBox="0 0 24 24" fill="none" xmlns="http://www.w3.org/2000/svg">
<path d="M17.49 8.86011L12.02 12L6.52002 8.86011C5.58002 8.33011 5 8.00001 5 6.26001V4.5C5 3.67 5.67 3 6.5 3H17.5C18.33 3 19 3.67 19 4.5V6.26001C19 8.00001 18.42 8.33011 17.49 8.86011ZM5 17.74V19.5C5 20.33 5.67 21 6.5 21H17.5C18.33 21 19 20.33 19 19.5V17.74C19 16 18.42 15.6699 17.49 15.1399L12.02 12L6.52002 15.1399C5.58002 15.6699 5 16 5 17.74Z" fill="currentColor"/>
</svg>

<svg xmlns="http://www.w3.org/2000/svg" width="24" height="24" fill="none"><path fill="currentColor" d="M17.49 8.86 12.02 12l-5.5-3.14C5.58 8.33 5 8 5 6.26V4.5C5 3.67 5.67 3 6.5 3h11c.83 0 1.5.67 1.5 1.5v1.76c0 1.74-.58 2.07-1.51 2.6ZM5 17.74v1.76c0 .83.67 1.5 1.5 1.5h11c.83 0 1.5-.67 1.5-1.5v-1.76c0-1.74-.58-2.07-1.51-2.6L12.02 12l-5.5 3.14C5.58 15.67 5 16 5 17.74Z"/></svg>
